assets/icons/uE044-mail.svg

<svg xmlns="http://www.w3.org/2000/svg" width="896" height="1232" viewBox="0 0 896 1232"><path d="M873 346q23 18 23 46v504q0 23-16.5 39.5T840 952H56q-23 0-39.5-16.5T0 896V392q0-28 23-46L416 66q17-10 33-10 18 0 32 11zM56 430v446l257-257zm644 68V364H196v134l252 185zM336 636L76 896h744L560 636l-104 75q-3 3-8 3t-8-3zm246-17l258 257V430zM449 112L56 392v3l112 82V336h560v141l112-82v-3zm167 364v28H280v-28h336zm0-56v28H280v-28h336z"/></svg>

<?xml version="1.0" encoding="UTF-8" standalone="no"?><svg   xmlns:svg="http://www.w3.org/2000/svg"   xmlns="http://www.w3.org/2000/svg"   version="1.1"   width="896"   height="1232"   viewBox="0 0 896 1232">  <path     d="M873 346Q896 364 896 392V896Q896 919 879.5 935.5T840 952H56Q33 952 16.5 935.5T0 896V392Q0 364 23 346L416 66Q433 56 449 56Q467 56 481 67zM56 430V876L313 619zM700 498V364H196V498L448 683zM336 636L76 896H820L560 636L456 711Q453 714 448 714T440 711zM582 619L840 876V430zM449 112L56 392V395L168 477V336H728V477L840 395V392zM616 476V504H280V476H616zM616 420V448H280V420H616z"     id="icon66" /></svg>
